public/assets/images/c++.svg

<svg xmlns="http://www.w3.org/2000/svg" width="64" height="64" viewBox="0 0 48 48">
  <g fill-rule="evenodd">
    <path d="M22.902344 3.285156c.679687-.378906 1.515625-.378906 2.195312 0 3.351563 1.882813 13.449219 7.550782 16.804688 9.433594C42.582031 13.101562 43 13.804688 43 14.566406v18.867188c0 .761718-.417969 1.464844-1.097656 1.847656-3.355469 1.882812-13.449219 7.550781-16.804688 9.433594-.679687.378906-1.515625.378906-2.195312 0-3.355469-1.882813-13.449219-7.550782-16.804688-9.433594C5.417969 34.898438 5 34.195312 5 33.433594V14.566406c0-.761718.417969-1.464844 1.097656-1.847656 3.351563-1.882812 13.453125-7.550781 16.804688-9.433594zm0 0"/>
    <path d="M5.304688 34.402344C5.039062 34.046875 5 33.710938 5 33.253906V14.496094c0-.757813.417969-1.457032 1.09375-1.835938C9.4375 10.789062 19.5 5.152344 22.84375 3.28125c.675781-.378906 1.59375-.371094 2.269531.007812 3.34375 1.871094 13.371094 7.457032 16.714844 9.328126.269531.152343.476563.335937.660156.578124zm0 0"/>
    <path d="M24 10c7.726562 0 14 6.273438 14 14s-6.273438 14-14 14-14-6.273438-14-14 6.273438-14 14-14zm0 7c3.863281 0 7 3.136719 7 7s-3.136719 7-7 7-7-3.136719-7-7 3.136719-7 7-7zm0 0" fill="#fff"/>
    <path d="M42.484375 13.203125c.515625.484375.507813 1.210937.507813 1.785156 0 3.796875-.03125 14.589844.007812 18.382813.003906.398437-.128906.816406-.324219 1.128906L23.59375 24zm0 0"/>
    <path d="M31 21h2v6h-2zm7 0h2v6h-2zm0 0" fill="#fff"/>
    <path d="M29 23h6v2h-6zm7 0h6v2h-6zm0 0" fill="#fff"/>
  </g>
</svg>

<?xml version="1.0" encoding="UTF-8"?>
<svg xmlns="http://www.w3.org/2000/svg" xmlns:xlink="http://www.w3.org/1999/xlink" width="48pt" height="48pt" viewBox="0 0 48 48" version="1.1">
<g id="surface215772">
<path style=" stroke:none;fill-rule:evenodd;fill:rgb(0%,0%,0%);fill-opacity:1;" d="M 22.902344 3.285156 C 23.582031 2.90625 24.417969 2.90625 25.097656 3.285156 C 28.449219 5.167969 38.546875 10.835938 41.902344 12.71875 C 42.582031 13.101562 43 13.804688 43 14.566406 C 43 18.332031 43 29.667969 43 33.433594 C 43 34.195312 42.582031 34.898438 41.902344 35.28125 C 38.546875 37.164062 28.453125 42.832031 25.097656 44.714844 C 24.417969 45.09375 23.582031 45.09375 22.902344 44.714844 C 19.546875 42.832031 9.453125 37.164062 6.097656 35.28125 C 5.417969 34.898438 5 34.195312 5 33.433594 C 5 29.667969 5 18.332031 5 14.566406 C 5 13.804688 5.417969 13.101562 6.097656 12.71875 C 9.449219 10.835938 19.550781 5.167969 22.902344 3.285156 Z M 22.902344 3.285156 "/>
<path style=" stroke:none;fill-rule:evenodd;fill:rgb(0%,0%,0%);fill-opacity:1;" d="M 5.304688 34.402344 C 5.039062 34.046875 5 33.710938 5 33.253906 C 5 29.511719 5 18.242188 5 14.496094 C 5 13.738281 5.417969 13.039062 6.09375 12.660156 C 9.4375 10.789062 19.5 5.152344 22.84375 3.28125 C 23.519531 2.902344 24.4375 2.910156 25.113281 3.289062 C 28.457031 5.160156 38.484375 10.746094 41.828125 12.617188 C 42.097656 12.769531 42.304688 12.953125 42.488281 13.195312 Z M 5.304688 34.402344 "/>
<path style=" stroke:none;fill-rule:evenodd;fill:rgb(100%,100%,100%);fill-opacity:1;" d="M 24 10 C 31.726562 10 38 16.273438 38 24 C 38 31.726562 31.726562 38 24 38 C 16.273438 38 10 31.726562 10 24 C 10 16.273438 16.273438 10 24 10 Z M 24 17 C 27.863281 17 31 20.136719 31 24 C 31 27.863281 27.863281 31 24 31 C 20.136719 31 17 27.863281 17 24 C 17 20.136719 20.136719 17 24 17 Z M 24 17 "/>
<path style=" stroke:none;fill-rule:evenodd;fill:rgb(0%,0%,0%);fill-opacity:1;" d="M 42.484375 13.203125 C 43 13.6875 42.992188 14.414062 42.992188 14.988281 C 42.992188 18.785156 42.960938 29.578125 43 33.371094 C 43.003906 33.769531 42.871094 34.1875 42.675781 34.5 L 23.59375 24 Z M 42.484375 13.203125 "/>
<path style=" stroke:none;fill-rule:evenodd;fill:rgb(100%,100%,100%);fill-opacity:1;" d="M 31 21 L 33 21 L 33 27 L 31 27 Z M 38 21 L 40 21 L 40 27 L 38 27 Z M 38 21 "/>
<path style=" stroke:none;fill-rule:evenodd;fill:rgb(100%,100%,100%);fill-opacity:1;" d="M 29 23 L 35 23 L 35 25 L 29 25 Z M 36 23 L 42 23 L 42 25 L 36 25 Z M 36 23 "/>
</g>
</svg>
